X:10161
T:Major Mackie's Jig
R:jig
M:6/8
L:1/8
K:D
A|ABc dcd|B2e e2d|c2a a^ga|f2d d2d|
ABc dcd|B2e e2d|c2a gec|d3 d2:|
|:A|f2f def|g3-g2g/f/|e2e cde|f3-f2A|
d2d def|g2B e2d|c2a gec|d3 d2:|
